X: 48
M:6/8
L:1/8
K:Gm
|: f2 g fdB|b2 g fdB|e2 g fdB|A3 c3|D2 F FDF|B2 d cAF|G/2A/2BG A/2B/2cA|G3 B3:|

